images/icon/ico-etc-tt-jp.svg

<svg width="45" height="45" viewBox="0 0 45 45" fill="none" xmlns="http://www.w3.org/2000/svg">
<path d="M2.94312 15.7575V16.1583V26.0491V26.4498V29.2071H13.9728V26.0491H6.20077V16.1583H13.9728V13.0002H2.94312V15.7575Z" fill="#454545"/>
<path d="M17.1899 16.1583H21.076V29.2071H24.3336V16.1583H28.2197V13.0002H17.1899V16.1583Z" fill="#454545"/>
<path d="M41.9999 16.1583V13.0002H30.9702V15.7575V16.1583V26.0491V26.4498V29.2071H41.9999V26.0491H34.2279V16.1583H41.9999Z" fill="#454545"/>
<path d="M11.4154 22.5384L13.9731 23.9704V21.1063V18.2422L11.4154 19.6742L8.85229 21.1063L11.4154 22.5384Z" fill="#454545"/>
<path d="M19.6309 37.5626C19.6309 37.9329 19.7091 38.2754 19.8655 38.5759C19.9508 38.7506 20.0575 38.8414 20.1713 38.8414C20.2353 38.8414 20.2993 38.8204 20.3704 38.7715C20.4415 38.7226 20.4984 38.6667 20.5411 38.6038C20.9464 37.9749 21.2664 37.0944 21.5081 35.9763L21.7001 35.1377C21.1597 35.3124 20.7544 35.5151 20.4771 35.7387C19.9153 36.1859 19.638 36.7939 19.638 37.5626H19.6309Z" fill="#454545"/>
<path d="M35.0471 38.492C35.1111 38.2753 35.1467 38.0307 35.168 37.7442C35.2036 37.29 35.2107 36.8218 35.1894 36.3606C35.1894 36.2418 35.1822 36.0391 35.1965 35.6408L35.2249 34.97L34.6205 34.6625L33.8525 34.2711L33.3263 33.9986V32.4193H30.226V32.7757L29.7851 32.6359L28.754 32.3075L27.7798 32L27.4243 32.9434C27.1043 33.8029 26.7772 34.5437 26.4501 35.1936C26.2723 34.8791 26.0661 34.5786 25.803 34.3201C24.9781 33.5374 23.8617 33.1391 22.4751 33.1391C21.0885 33.1391 19.837 33.5793 18.9197 34.4458C18.7063 34.6415 18.5286 34.8581 18.365 35.0748V34.8861L17.2415 34.97L16.8931 34.9979L17.3197 34.6765L16.6157 33.8379L15.8193 32.8875L15.3856 32.3704L14.7243 32.5451C14.0701 32.7198 13.3447 32.8036 12.5697 32.8036C12.3634 32.8036 12.079 32.7966 11.7306 32.7757L10.5999 32.7058V35.4591L10.0311 35.4941L9 35.557L9.03555 36.5772L9.07111 37.5625L9.10666 38.6737L10.2302 38.5758L11.247 38.485C11.2399 38.5688 11.2328 38.6527 11.2328 38.7365C11.2328 39.2816 11.4106 39.7987 11.7519 40.2669C12.1003 40.7282 12.5625 41.0915 13.1385 41.3501C13.807 41.6576 14.7243 41.8183 15.9331 41.8532L17.0282 41.8812V38.5758H15.094C14.9162 38.5758 14.7527 38.5479 14.5963 38.478C14.6603 38.4221 14.7883 38.3312 15.03 38.2055L17.3908 38.1426H17.5544C17.6042 38.5968 17.725 39.051 17.917 39.4843C18.5286 40.8539 19.4743 41.0636 19.9863 41.0636C20.4556 41.0636 20.8894 40.9168 21.3018 40.6233C21.3587 40.7491 21.4014 40.8749 21.444 41.0077L21.7498 41.993L22.7595 41.7135C24.004 41.3641 24.8715 40.9867 25.419 40.5465C25.8883 40.1691 26.2439 39.7219 26.4999 39.2187L26.635 39.5891V41.979H29.7709V41.7484C30.0411 41.8602 30.3326 41.9161 30.6384 41.9161H33.3405C34.4712 41.9161 35.0258 41.441 35.2818 41.0356C35.488 40.7142 35.6445 40.2879 35.7796 39.7289L36.0071 38.7505L35.0543 38.492H35.0471ZM14.7669 37.1712C14.3687 37.3599 14.0701 37.5416 13.8781 37.7163C13.5581 37.9958 13.4016 38.2823 13.4016 38.5828C13.4016 38.8833 13.5794 39.1419 13.9349 39.3305C14.3047 39.5262 14.6887 39.624 15.1011 39.624H15.9687V40.805C14.9162 40.7771 14.1198 40.6373 13.5865 40.3927C13.1741 40.2041 12.847 39.9525 12.6123 39.645C12.399 39.3585 12.2923 39.051 12.2923 38.7296C12.2923 38.2753 12.5483 37.7862 13.0603 37.2621L10.1306 37.5276L10.0951 36.5423L11.1617 36.4794C12.4488 35.7456 13.4301 35.1237 14.0914 34.6136C13.295 34.7603 12.4843 34.8721 11.6595 34.942V33.8309C12.0292 33.8519 12.3279 33.8658 12.5625 33.8658C13.4372 33.8658 14.2478 33.768 14.9945 33.5723L15.7909 34.5227C14.902 35.1936 14.0132 35.8085 13.1243 36.3536L17.3268 36.0252L17.3624 37.1083L14.7598 37.1712H14.7669ZM24.7435 39.7358C24.3168 40.0783 23.5631 40.3997 22.468 40.7072C22.3542 40.3368 22.1978 39.9874 21.9987 39.659C22.5107 39.5681 22.8947 39.4703 23.1435 39.3725C24.2244 38.9532 24.7648 38.2124 24.7648 37.1642C24.7648 36.4444 24.5159 35.9064 24.0182 35.543C23.7764 35.3683 23.5133 35.2495 23.2218 35.1726C23.0938 35.1377 22.9444 35.1097 22.7738 35.0748C22.6031 35.8644 22.4467 36.5003 22.2902 36.9895C22.0911 37.6184 21.8494 38.1915 21.5578 38.7016C21.06 39.5821 20.541 40.0224 19.9934 40.0224C19.5525 40.0224 19.1828 39.7079 18.8983 39.072C18.6992 38.6247 18.5997 38.1635 18.5997 37.6813C18.5997 36.703 18.9552 35.8784 19.6663 35.2075C20.3845 34.5297 21.3231 34.1943 22.4822 34.1943C23.6413 34.1943 24.4448 34.4878 25.0635 35.0818C25.4261 35.4312 25.6608 35.8714 25.7888 36.3885C25.8528 36.6541 25.8954 36.9336 25.8954 37.2481C25.8954 37.3669 25.8741 37.4717 25.8599 37.5835C25.7817 38.471 25.419 39.1978 24.7364 39.7498L24.7435 39.7358ZM22.9231 38.3242C23.0653 37.9958 23.1933 37.6534 23.3071 37.29C23.3782 37.0594 23.4564 36.8008 23.5275 36.5073C23.6271 36.6261 23.7053 36.8218 23.7053 37.1572C23.7053 37.5765 23.6057 38.0028 22.9231 38.3242ZM28.7042 40.9308H27.7016V37.2411C27.5523 37.5206 27.3816 37.7792 27.2038 38.0307C27.1327 37.8351 27.0403 37.6324 26.9621 37.4368C26.9621 37.3739 26.9692 37.311 26.9692 37.2481C26.9692 37.0175 26.9407 36.8008 26.9123 36.5912C27.4314 35.7317 27.9363 34.6485 28.434 33.3208L29.4651 33.6492L28.6971 35.4521V40.9518L28.7042 40.9308ZM34.3858 40.4696C34.2152 40.7352 33.8667 40.8679 33.3405 40.8679H30.6384C30.4037 40.8679 30.1975 40.812 30.0126 40.6932C29.8989 40.6233 29.8278 40.5395 29.7851 40.4347C29.7353 40.3159 29.7069 40.1551 29.7069 39.9525V36.9406L28.9105 37.0734L28.7753 36.0881L29.7069 35.9273V34.3899H30.674V35.7666L31.3068 35.6338V33.4675H32.2739V35.4661L33.2765 35.3054L33.3761 35.2075L34.1441 35.5989C34.1298 35.9553 34.1227 36.2278 34.1369 36.4165C34.1583 36.8358 34.1512 37.2551 34.1156 37.6674C34.0801 38.1006 34.0018 38.3802 33.881 38.5129C33.7103 38.6387 33.3405 38.7505 32.7788 38.8414C32.729 38.5199 32.6294 38.1985 32.4801 37.891H32.8783C33.0561 37.891 33.1485 37.4228 33.1485 36.4794V36.2837L32.281 36.4444V39.1628H31.3139V36.6052L30.6811 36.7379V39.6869C30.6811 39.8826 30.7664 39.9804 30.9513 39.9804H32.985C33.2623 39.9804 33.433 39.9595 33.4827 39.9175C33.5041 39.9036 33.5183 39.8896 33.5254 39.8826C33.5965 39.7568 33.6747 39.4983 33.753 39.0999C34.0801 39.2676 34.4143 39.4004 34.7556 39.4913C34.656 39.9315 34.5352 40.26 34.4001 40.4696H34.3858Z" fill="#454545"/>
</svg>

<?xml version="1.0" encoding="utf-8"?>
<!-- Generator: Adobe Illustrator 25.0.1, SVG Export Plug-In . SVG Version: 6.00 Build 0)  -->
<svg version="1.1" id="圖層_1" xmlns="http://www.w3.org/2000/svg" xmlns:xlink="http://www.w3.org/1999/xlink" x="0px" y="0px"
	 viewBox="0 0 45 45" style="enable-background:new 0 0 45 45;" xml:space="preserve">
<style type="text/css">
	.st0{fill:#454545;}
</style>
<path class="st0" d="M2.9,15.8v0.4V26v0.4v2.8h11V26H6.2v-9.9H14V13H3L2.9,15.8L2.9,15.8z"/>
<path class="st0" d="M17.2,16.2h3.9v13h3.3v-13h3.9V13h-11L17.2,16.2L17.2,16.2z"/>
<path class="st0" d="M42,16.2V13H31v2.8v0.4V26v0.4v2.8h11V26h-7.8v-9.9H42V16.2z"/>
<path class="st0" d="M11.4,22.5L14,24v-2.9v-2.9l-2.6,1.4L8.8,21L11.4,22.5z"/>
</svg>
